X:282
T: HEILGE LIEBE HIMMELSGLAUBE
N: B0760
O: Europa, Mitteleuropa, Deutschland
R: religioes
M: 4/4
L: 1/8
K: G
 | G2G2AFG2 | B2B2cAB2 |
d2c2B2AB | c3cc4 |
c3BA2A2 | d3cB2B2 |
e2d2c2B2 | BAGFG2z2

@@@ Tune index: 2500
